shape-square-rounded-plus.svg

<svg fill="currentColor" viewBox="0 0 24 24"><path d="M17 2h2v3h3v2h-3v3h-2V7h-3V5h3zM7 5h4v2H7c-1.1 0-2 .9-2 2v8a2 2 0 0 0 2 2h8c1.11 0 2-.89 2-2v-4h2v4c0 2.21-1.79 4-4 4H7c-2.21 0-4-1.79-4-4V9c0-2.21 1.79-4 4-4"/></svg>

<svg  viewBox="0 0 24 24" fill="currentColor"><path  d="M17 2H19V5H22V7H19V10H17V7H14V5H17V2M7 5H11V7H7C5.9 7 5 7.9 5 9V17C5 18.11 5.9 19 7 19H15C16.11 19 17 18.11 17 17V13H19V17C19 19.21 17.21 21 15 21H7C4.79 21 3 19.21 3 17V9C3 6.79 4.79 5 7 5Z"/></svg>
